X:29
T:Teatotaller, The
T:Temperance reel, The
R:reel
Z:id:hn-reel-29
M:C|
K:G
G2GF GABc|dBge dBAc|BEED EFGA|BGEF GFED|
G2GF GABc|dBge dBAc|BEED EFGA|BGEF G4:|
|:Beed e2ef|geaf gfed|Bdd^c d2de|fdfa gfed|
Beed e2ef|geaf gfed|BEED EFGA|BGEF G4:|
P:Variations:
DGGF GABc|dgeB dBAc|BEED EFGA|BGAF GFEF|
DGGF GABc|dgge dBAc|BEED EFGA|BGAF G4:|
|:Beed e2ef|gaaf gfed|Bdd^c d2de|fdfa gfed|
Beed e2ef|gaaf gfed|BEED EFGA|BGAF G4:|
<end>
<start>
